X: 33754
T: Rattlin' Bog, The
R: polka
M: 2/4
K: Dmajor
|:f2 fe|dB B2|Ad d/c/d/e/|fe eA|
f2 fe|dB B2|Aa a>g|1 fd de:|2 fd dd/e/||
|:fd ed/e/|fd ed/e/|fa a>g|fd ed/e/|
fd ed/e/|fd ed/e/|fa a>g|1 fd dd/e/:|2 ed de||

